!!!OTL: Schenkenbachs Reuterlied. (c. 1513.)
!!!ARE: Europa, Mitteleuropa, Deutschland
!!!SCT: A0426A
!!!TXL: @@GMH
!!!YEM: Copyright 1995, estate of Helmut Schaffrath.
**kern	**text
!! Mixed meters:  4/2; 6/2
*M4/2	*
*met(c|)	*
*clefC3	*
*k[b-]	*
*F:ion	*
=1	=1
!LO:TX:a:t=jon. F.	!
1ryy	.
2ryy	.
{2c	Von
=2	=2
2c	erſt
2c	ſo
2d	wöl
2e	wir
=3	=3
*M6/2	*
1f	lo-
1c}	-ben
{1d	Mar-
=4	=4
1c	-jam
2B-	die
2A	rei-
1G	-ne
=5	=5
*M4/2	*
1F	meid,
2r}	.
{2f	die
=6	=6
2f	ſitʒt
2f	ſo
2f	hoch
2f	dort
=7	=7
*M6/2	*
1e	o-
1c	-ben,
2r}	.
!LO:TX:a:t=*	!
{2c	kain
=8	=8
1g	bitt
2f	ſie
2e	uns
1d	ver-
=9	=9
0c	-ſait,
2r}	.
{2c	uns
=10	=10
*M6/2	*
1f	ar-
2f	-men
1e	reu-
2e	-ters-
=11	=11
1d	-knaben,
1A	.
2r}	.
{2A	die
=12	=12
1d	nicht
2d	vil
1d	gol-
2d	-des
=13	=13
1G	ha-
1G	-ben,
2r}	.
{2c/	nur
=14	=14
*M4/2	*
2c/	hin
2c/	und
2c/	wie-
2B-/	-der
=15	=15
*M6/2	*
1c	tra-
1A}	-ben,
{1f	ſie
=16	=16
1e	thut
2d	uns
2c	gne-
1B-	-dig
=17	=17
*M4/2	*
1A	ſein,
2r	.
2d	die-
=18	=18
*M6/2	*
1c	-ſel-
2B-	-big
2A	jungfraw
1G	.
=19	=19
0.F/ll}	rein.
==	==
!!!GTL: Landsknecht- und Reiterlieder
!!!AGN: Romanze, Ballade, Lied, Kriegslied
!! Ott 1534 N0. 38.
!!!ONB: ESAC (Essen Associative Code) Database: ALTDEU
!!!AMT: irregular
!!!AIN: vox
!!!EED: Helmut Schaffrath
!!!EEV: 1.0
!!!RDF**kern: l = terminal long
!!!AMD: Ionian
!!!URL-scan: https://rosdok.uni-rostock.de/mcrviewer/recordIdentifier/rosdok_ppn738218359/iview2/phys_0604.iview2?x=-1294.6859637568468&y=473.0952406125143&scale=0.3170017948926&rotation=0&layout=singlePageLayout&logicalDiv=log_0016
!!!ENC: Anna Maria Matuszewska
!!!EEV: 2024/18/03
*-	*-
